badges/Kotlin.svg

<svg height="24" viewBox="0 0 58 24" width="58" xmlns="http://www.w3.org/2000/svg" xmlns:xlink="http://www.w3.org/1999/xlink"><linearGradient id="a" x1="-.181942" x2=".616193" y1=".756118" y2="-.129224"><stop offset="0" stop-color="#1c93c1"/><stop offset=".16300001" stop-color="#2391c0"/><stop offset=".404" stop-color="#378bbe"/><stop offset=".696" stop-color="#587eb9"/><stop offset=".995" stop-color="#7f6cb1"/></linearGradient><linearGradient id="b" x1=".340258" x2=".749906" y1="1.323762" y2=".493517"><stop offset="0" stop-color="#1c93c1"/><stop offset=".216" stop-color="#2d8ebf"/><stop offset=".64" stop-color="#587eb9"/><stop offset=".995" stop-color="#7f6cb1"/></linearGradient><linearGradient id="c" x1=".025313" x2=".722508" y1=".744133" y2=".016531"><stop offset="0" stop-color="#c757a7"/><stop offset=".045999994" stop-color="#ca5a9e"/><stop offset=".241" stop-color="#d66779"/><stop offset=".42799995" stop-color="#e17357"/><stop offset=".60000004" stop-color="#e97c3a"/><stop offset=".756" stop-color="#ef8324"/><stop offset=".888" stop-color="#f28817"/><stop offset=".982" stop-color="#f48912"/></linearGradient><path d="m5.999 0h46.002q.1473 0 .2944.00722606.147.00722604.2936.02166074.1466.0144347.2922.0360433.1457.0216086.2901.0503389.1445.02873.2873.064513.1429.035783.2838.078533.1409.042749.2796.092362.1387.049613.2747.10597.1361.056356.2692.119321.1331.062965.263.132386.1299.069422.2562.145132.1263.07571.2488.157524.1224.08182.2407.16955.1183.08772.2321.18115.1139.09343.223.19232.1091.0989.2132.20304.1042.10413.2031.21325.0989.10912.1923.22295.0934.11384.1811.23213.0878.11829.1696.24073.0818.12245.1575.24877.0757.12631.1451.25619.0695.12988.1324.26301.063.13312.1193.26918.0564.13606.106.27472.0496.13866.0924.27958.0427.14093.0785.28378.0358.14286.0645.28729.0288.14444.0504.29011.0216.14568.036.29224.0144.14655.0217.29364.0072.14709.0072.29436v12.002q0 .1473-.0072.2944-.0073.147-.0217.2936-.0144.1466-.036.2922-.0216.1457-.0504.2901-.0287.1445-.0645.2873-.0358.1429-.0785.2838-.0428.1409-.0924.2796-.0496.1387-.106.2747-.0563.1361-.1193.2692-.0629.1331-.1324.263-.0694.1299-.1451.2562-.0757.1263-.1575.2488-.0818.1224-.1696.2407-.0877.1183-.1811.2321-.0934.1139-.1923.223-.0989.1091-.2031.2132-.1041.1042-.2132.2031-.1091.0989-.223.1923-.1138.0934-.2321.1811-.1183.0878-.2407.1696-.1225.0818-.2488.1575-.1263.0757-.2562.1451-.1299.0695-.263.1324-.1331.063-.2692.1193-.136.0564-.2747.106-.1387.0496-.2796.0924-.1409.0427-.2838.0785-.1428.0358-.2873.0645-.1444.0288-.2901.0504-.1456.0216-.2922.036-.1466.0144-.2936.0217-.1471.0072-.2944.0072h-46.002q-.14727 0-.29436-.0072-.14709-.0073-.29364-.0217-.14656-.0144-.29224-.036-.14567-.0216-.29011-.0504-.14443-.0287-.28729-.0645-.14285-.0358-.28378-.0785-.14092-.0428-.27958-.0924-.13866-.0496-.27472-.106-.13606-.0563-.26918-.1193-.13313-.0629-.26301-.1324-.12988-.0694-.25619-.1451-.12632-.0757-.24877-.1575-.12244-.0818-.24073-.1696-.11829-.0877-.23213-.1811-.11383-.0934-.22295-.1923-.10912-.0989-.21325-.2031-.10414-.1041-.20304-.2132-.09889-.1091-.19232-.223-.09342-.1138-.18115-.2321-.08773-.1183-.16955-.2407-.081814-.1225-.157524-.2488-.07571-.1263-.145132-.2562-.069421-.1299-.132386-.263-.062965-.1331-.119321-.2692-.056357-.136-.10597-.2747-.049613-.1387-.092362-.2796-.04275-.1409-.078533-.2838-.035783-.1428-.064513-.2873-.0287303-.1444-.0503389-.2901-.0216086-.1456-.0360433-.2922-.0144347-.1466-.02166074-.2936-.00722606-.1471-.00722606-.2944v-12.002q0-.14727.00722606-.29436.00722604-.14709.02166074-.29364.0144347-.14656.0360433-.29224.0216086-.14567.0503389-.29011.02873-.14443.064513-.28729.035783-.14285.078533-.28378.042749-.14092.092362-.27958.049613-.13866.10597-.27472.056356-.13606.119321-.26918.062965-.13313.132386-.26301.069422-.12988.145132-.25619.07571-.12632.157524-.24877.08182-.12244.16955-.24073.08772-.11829.18115-.23213.09343-.11383.19232-.22295.0989-.10912.20304-.21325.10413-.10414.21325-.20304.10912-.09889.22295-.19232.11384-.09342.23213-.18115.11829-.08773.24073-.16955.12245-.081814.24877-.157524.12631-.07571.25619-.145132.12988-.069421.26301-.132386.13312-.062965.26918-.119321.13606-.056357.27472-.10597.13866-.049613.27958-.092362.14093-.04275.28378-.078533.14286-.035783.28729-.064513.14444-.0287303.29011-.0503389.14568-.0216086.29224-.0360433.14655-.0144347.29364-.02166074.14709-.00722606.29436-.00722606z" fill-rule="evenodd"/><path d="m5.999 2h12.002q.1965 0 .392.01926.1955.01925.3882.05758.1927.03833.3806.09536.188.05702.3696.13221.1815.07518.3547.16779.1733.09261.3366.20175.1634.10915.3152.23378.1519.12463.2908.26355.1389.13892.2636.29078.1246.15187.2337.31521.1092.16335.2018.33661.0926.17327.1678.35477.0752.1815.1322.3695.057.188.0954.38068.0383.19269.0575.3882.0193.19551.0193.39197v12.002q0 .1965-.0193.392-.0192.1955-.0575.3882-.0384.1927-.0954.3806-.057.188-.1322.3696-.0752.1815-.1678.3547-.0926.1733-.2018.3366-.1091.1634-.2337.3152-.1247.1519-.2636.2908-.1389.1389-.2908.2636-.1518.1246-.3152.2337-.1633.1092-.3366.2018-.1732.0926-.3547.1678-.1816.0752-.3696.1322-.1879.057-.3806.0954-.1927.0383-.3882.0575-.1955.0193-.392.0193h-12.002q-.19646 0-.39197-.0193-.19551-.0192-.3882-.0575-.19268-.0384-.38068-.0954-.188-.057-.3695-.1322-.1815-.0752-.35477-.1678-.17326-.0926-.33661-.2018-.16334-.1091-.31521-.2337-.15186-.1247-.29078-.2636-.13892-.1389-.26355-.2908-.12463-.1518-.23378-.3152-.10914-.1633-.20175-.3366-.09261-.1732-.16779-.3547-.07519-.1816-.13221-.3696-.05703-.1879-.09536-.3806-.03833-.1927-.05758-.3882-.01926-.1955-.01926-.392v-12.002q0-.19646.01926-.39197.01925-.19551.05758-.3882.03833-.19268.09536-.38068.05702-.188.13221-.3695.07518-.1815.16779-.35477.09261-.17326.20175-.33661.10915-.16334.23378-.31521.12463-.15186.26355-.29078.13892-.13892.29078-.26355.15187-.12463.31521-.23378.16335-.10914.33661-.20175.17327-.09261.35477-.16779.1815-.07519.3695-.13221.188-.05703.38068-.09536.19269-.03833.3882-.05758.19551-.01926.39197-.01926z" fill="#fff" fill-rule="evenodd"/><path d="m20.1243 3.3402q-.277 0-.4741-.18644-.1971-.18643-.1971-.44566 0-.26279.1971-.44922.1971-.18644.4741-.18644.2734 0 .4723.18644.1989.18643.1989.44922 0 .25923-.1989.44566-.1989.18644-.4723.18644zm-19.325294-.97656v7.27272h1.097304v-2.26207l.85937-.98722 2.35085 3.24929h1.32103l-2.9439-3.99858 2.93324-3.27414h-1.38139l-3.05042 3.47301h-.08878v-3.47301zm17.361494 7.27272v-7.27272h-1.0618v7.27272zm-2.2337-5.45454v.85227h-1.1186v3.00071q0 .46165.1971.59482.1971.13316.4563.13316.1279 0 .2238-.01775.0958-.01776.1491-.02841l.1918.87713q-.0924.03551-.2646.0728-.1722.03729-.4243.04084-.4191.0071-.7831-.14915-.364-.15625-.5859-.48296-.222-.3267-.222-.82031v-3.22088h-.799v-.85227h.799v-1.30682h1.0618v1.30682zm-7.61004 5.21307q.57173.35156 1.33878.35156.77056 0 1.34056-.35156.57-.35157.886-.98544.3161-.63388.3161-1.4755 0-.84872-.3161-1.48438-.316-.63565-.886-.98721-.57-.35156-1.34056-.35156-.76705 0-1.33878.35156-.57173.35156-.88778.98721-.31605.63566-.31605 1.48438 0 .84162.31605 1.4755.31605.63387.88778.98544zm14.82244.24147v-3.23863q0-.65341.3587-1.0103.3586-.35689.9126-.35689.5398 0 .8487.33558.309.33558.309.92862v3.34162h1.0618v-3.46946q0-1.01207-.5096-1.53409-.5096-.52201-1.3477-.52201-.6143 0-1.0174.26278-.403.26278-.5912.69602h-.0675v-.88778h-1.0192v5.45454zm-3.5511 0v-5.45454h1.0618v5.45454zm-9.1034-1.04403q-.3249.26278-.82561.26278-.50071 0-.82741-.26278-.32671-.26278-.48651-.70135-.1598-.43857-.1598-.96058 0-.52202.1598-.96236.1598-.44034.48651-.7049.3267-.26456.82741-.26456.50071 0 .82561.26456.325.26456.483.7049.158.44034.158.96236 0 .52201-.158.96058-.158.43857-.483.70135z" fill="#fff" transform="translate(26 6)"/><g transform="translate(5 5.116333)"><path d="m0 0h7.15313l-7.15313 7.04375z" fill="url(#a)"/><path d="m14 13.9999-6.93438-7.1531-7.06562 7.1531z" fill="url(#b)"/><path d="m0 14 14-14h-6.93438l-7.06562 6.96719z" fill="url(#c)"/></g></svg>

<?xml version="1.0" encoding="utf-8"?>
<svg width="58px" height="24px" viewBox="0 0 58 24" version="1.1" xmlns:xlink="http://www.w3.org/1999/xlink" xmlns="http://www.w3.org/2000/svg">
  <defs>
    <linearGradient x1="-0.1819419" y1="0.756118" x2="0.61619264" y2="-0.12922359" id="gradient_1">
      <stop offset="0%" stop-color="#1C93C1" />
      <stop offset="16.300001%" stop-color="#2391C0" />
      <stop offset="40.4%" stop-color="#378BBE" />
      <stop offset="69.6%" stop-color="#587EB9" />
      <stop offset="99.5%" stop-color="#7F6CB1" />
    </linearGradient>
    <linearGradient x1="0.34025782" y1="1.3237615" x2="0.74990624" y2="0.4935168" id="gradient_2">
      <stop offset="0%" stop-color="#1C93C1" />
      <stop offset="21.6%" stop-color="#2D8EBF" />
      <stop offset="64%" stop-color="#587EB9" />
      <stop offset="99.5%" stop-color="#7F6CB1" />
    </linearGradient>
    <linearGradient x1="0.0253125" y1="0.7441328" x2="0.72250783" y2="0.01653125" id="gradient_3">
      <stop offset="0%" stop-color="#C757A7" />
      <stop offset="4.5999994%" stop-color="#CA5A9E" />
      <stop offset="24.1%" stop-color="#D66779" />
      <stop offset="42.799995%" stop-color="#E17357" />
      <stop offset="60.000004%" stop-color="#E97C3A" />
      <stop offset="75.6%" stop-color="#EF8324" />
      <stop offset="88.8%" stop-color="#F28817" />
      <stop offset="98.2%" stop-color="#F48912" />
    </linearGradient>
  </defs>
  <g id="Group-63">
    <g id="Group-54-Copy-2">
      <path d="M5.999 0L52.001 0Q52.1483 0 52.2954 0.00722606Q52.4424 0.0144521 52.589 0.0288868Q52.7356 0.0433215 52.8812 0.0649301Q53.0269 0.0865387 53.1713 0.115269Q53.3158 0.143999 53.4586 0.179782Q53.6015 0.215565 53.7424 0.258315Q53.8833 0.301064 54.022 0.350677Q54.1607 0.40029 54.2967 0.456647Q54.4328 0.513003 54.5659 0.575968Q54.699 0.638933 54.8289 0.708354Q54.9588 0.777776 55.0851 0.853486Q55.2114 0.929196 55.3339 1.01101Q55.4563 1.09283 55.5746 1.18056Q55.6929 1.26828 55.8067 1.36171Q55.9206 1.45514 56.0297 1.55403Q56.1388 1.65293 56.2429 1.75707Q56.3471 1.8612 56.446 1.97032Q56.5449 2.07944 56.6383 2.19327Q56.7317 2.30711 56.8194 2.4254Q56.9072 2.54369 56.989 2.66613Q57.0708 2.78858 57.1465 2.9149Q57.2222 3.04121 57.2916 3.17109Q57.3611 3.30097 57.424 3.4341Q57.487 3.56722 57.5433 3.70328Q57.5997 3.83934 57.6493 3.978Q57.6989 4.11666 57.7417 4.25758Q57.7844 4.39851 57.8202 4.54136Q57.856 4.68422 57.8847 4.82865Q57.9135 4.97309 57.9351 5.11876Q57.9567 5.26444 57.9711 5.411Q57.9855 5.55755 57.9928 5.70464Q58 5.85173 58 5.999L58 18.001Q58 18.1483 57.9928 18.2954Q57.9855 18.4424 57.9711 18.589Q57.9567 18.7356 57.9351 18.8812Q57.9135 19.0269 57.8847 19.1713Q57.856 19.3158 57.8202 19.4586Q57.7844 19.6015 57.7417 19.7424Q57.6989 19.8833 57.6493 20.022Q57.5997 20.1607 57.5433 20.2967Q57.487 20.4328 57.424 20.5659Q57.3611 20.699 57.2916 20.8289Q57.2222 20.9588 57.1465 21.0851Q57.0708 21.2114 56.989 21.3339Q56.9072 21.4563 56.8194 21.5746Q56.7317 21.6929 56.6383 21.8067Q56.5449 21.9206 56.446 22.0297Q56.3471 22.1388 56.2429 22.2429Q56.1388 22.3471 56.0297 22.446Q55.9206 22.5449 55.8067 22.6383Q55.6929 22.7317 55.5746 22.8194Q55.4563 22.9072 55.3339 22.989Q55.2114 23.0708 55.0851 23.1465Q54.9588 23.2222 54.8289 23.2916Q54.699 23.3611 54.5659 23.424Q54.4328 23.487 54.2967 23.5433Q54.1607 23.5997 54.022 23.6493Q53.8833 23.6989 53.7424 23.7417Q53.6015 23.7844 53.4586 23.8202Q53.3158 23.856 53.1713 23.8847Q53.0269 23.9135 52.8812 23.9351Q52.7356 23.9567 52.589 23.9711Q52.4424 23.9855 52.2954 23.9928Q52.1483 24 52.001 24L5.999 24Q5.85173 24 5.70464 23.9928Q5.55755 23.9855 5.411 23.9711Q5.26444 23.9567 5.11876 23.9351Q4.97309 23.9135 4.82865 23.8847Q4.68422 23.856 4.54136 23.8202Q4.39851 23.7844 4.25758 23.7417Q4.11666 23.6989 3.978 23.6493Q3.83934 23.5997 3.70328 23.5433Q3.56722 23.487 3.4341 23.424Q3.30097 23.3611 3.17109 23.2916Q3.04121 23.2222 2.9149 23.1465Q2.78858 23.0708 2.66613 22.989Q2.54369 22.9072 2.4254 22.8194Q2.30711 22.7317 2.19327 22.6383Q2.07944 22.5449 1.97032 22.446Q1.8612 22.3471 1.75707 22.2429Q1.65293 22.1388 1.55403 22.0297Q1.45514 21.9206 1.36171 21.8067Q1.26829 21.6929 1.18056 21.5746Q1.09283 21.4563 1.01101 21.3339Q0.929196 21.2114 0.853486 21.0851Q0.777776 20.9588 0.708354 20.8289Q0.638933 20.699 0.575968 20.5659Q0.513003 20.4328 0.456647 20.2967Q0.40029 20.1607 0.350677 20.022Q0.301064 19.8833 0.258315 19.7424Q0.215565 19.6015 0.179782 19.4586Q0.143999 19.3158 0.115269 19.1713Q0.0865387 19.0269 0.0649301 18.8812Q0.0433215 18.7356 0.0288868 18.589Q0.0144521 18.4424 0.00722606 18.2954Q0 18.1483 0 18.001L0 5.999Q0 5.85173 0.00722606 5.70464Q0.0144521 5.55755 0.0288868 5.411Q0.0433215 5.26444 0.0649301 5.11876Q0.0865387 4.97309 0.115269 4.82865Q0.143999 4.68422 0.179782 4.54136Q0.215565 4.39851 0.258315 4.25758Q0.301064 4.11666 0.350677 3.978Q0.40029 3.83934 0.456647 3.70328Q0.513003 3.56722 0.575968 3.4341Q0.638933 3.30097 0.708354 3.17109Q0.777776 3.04121 0.853486 2.9149Q0.929196 2.78858 1.01101 2.66613Q1.09283 2.54369 1.18056 2.4254Q1.26828 2.30711 1.36171 2.19327Q1.45514 2.07944 1.55403 1.97032Q1.65293 1.8612 1.75707 1.75707Q1.8612 1.65293 1.97032 1.55403Q2.07944 1.45514 2.19327 1.36171Q2.30711 1.26829 2.4254 1.18056Q2.54369 1.09283 2.66613 1.01101Q2.78858 0.929196 2.9149 0.853486Q3.04121 0.777776 3.17109 0.708354Q3.30097 0.638933 3.4341 0.575968Q3.56722 0.513003 3.70328 0.456647Q3.83934 0.40029 3.978 0.350677Q4.11666 0.301064 4.25758 0.258315Q4.39851 0.215565 4.54136 0.179782Q4.68422 0.143999 4.82865 0.115269Q4.97309 0.0865387 5.11876 0.0649301Q5.26444 0.0433215 5.411 0.0288868Q5.55755 0.0144521 5.70464 0.00722606Q5.85173 0 5.999 0Z" id="Rectangle" fill="#000000" fill-rule="evenodd" stroke="none" />
      <path d="M5.999 2L18.001 2Q18.1975 2 18.393 2.01926Q18.5885 2.03851 18.7812 2.07684Q18.9739 2.11517 19.1618 2.1722Q19.3498 2.22922 19.5314 2.30441Q19.7129 2.37959 19.8861 2.4722Q20.0594 2.56481 20.2227 2.67395Q20.3861 2.7831 20.5379 2.90773Q20.6898 3.03236 20.8287 3.17128Q20.9676 3.3102 21.0923 3.46206Q21.2169 3.61393 21.326 3.77727Q21.4352 3.94062 21.5278 4.11388Q21.6204 4.28715 21.6956 4.46865Q21.7708 4.65015 21.8278 4.83815Q21.8848 5.02615 21.9232 5.21883Q21.9615 5.41152 21.9807 5.60703Q22 5.80254 22 5.999L22 18.001Q22 18.1975 21.9807 18.393Q21.9615 18.5885 21.9232 18.7812Q21.8848 18.9739 21.8278 19.1618Q21.7708 19.3498 21.6956 19.5314Q21.6204 19.7129 21.5278 19.8861Q21.4352 20.0594 21.326 20.2227Q21.2169 20.3861 21.0923 20.5379Q20.9676 20.6898 20.8287 20.8287Q20.6898 20.9676 20.5379 21.0923Q20.3861 21.2169 20.2227 21.326Q20.0594 21.4352 19.8861 21.5278Q19.7129 21.6204 19.5314 21.6956Q19.3498 21.7708 19.1618 21.8278Q18.9739 21.8848 18.7812 21.9232Q18.5885 21.9615 18.393 21.9807Q18.1975 22 18.001 22L5.999 22Q5.80254 22 5.60703 21.9807Q5.41152 21.9615 5.21883 21.9232Q5.02615 21.8848 4.83815 21.8278Q4.65015 21.7708 4.46865 21.6956Q4.28715 21.6204 4.11388 21.5278Q3.94062 21.4352 3.77727 21.326Q3.61393 21.2169 3.46206 21.0923Q3.3102 20.9676 3.17128 20.8287Q3.03236 20.6898 2.90773 20.5379Q2.7831 20.3861 2.67395 20.2227Q2.56481 20.0594 2.4722 19.8861Q2.37959 19.7129 2.30441 19.5314Q2.22922 19.3498 2.1722 19.1618Q2.11517 18.9739 2.07684 18.7812Q2.03851 18.5885 2.01926 18.393Q2 18.1975 2 18.001L2 5.999Q2 5.80254 2.01926 5.60703Q2.03851 5.41152 2.07684 5.21883Q2.11517 5.02615 2.1722 4.83815Q2.22922 4.65015 2.30441 4.46865Q2.37959 4.28715 2.4722 4.11388Q2.56481 3.94062 2.67395 3.77727Q2.7831 3.61393 2.90773 3.46206Q3.03236 3.3102 3.17128 3.17128Q3.3102 3.03236 3.46206 2.90773Q3.61393 2.7831 3.77727 2.67395Q3.94062 2.56481 4.11388 2.4722Q4.28715 2.37959 4.46865 2.30441Q4.65015 2.22922 4.83815 2.1722Q5.02615 2.11517 5.21883 2.07684Q5.41152 2.03851 5.60703 2.01926Q5.80254 2 5.999 2Z" id="Rectangle-2" fill="#FFFFFF" fill-rule="evenodd" stroke="none" />
      <g id="Kotlin" fill="#FFFFFF" transform="translate(26 6)">
        <path d="M20.1243 3.3402Q19.8473 3.3402 19.6502 3.15376Q19.4531 2.96733 19.4531 2.7081Q19.4531 2.44531 19.6502 2.25888Q19.8473 2.07244 20.1243 2.07244Q20.3977 2.07244 20.5966 2.25888Q20.7955 2.44531 20.7955 2.7081Q20.7955 2.96733 20.5966 3.15376Q20.3977 3.3402 20.1243 3.3402ZM0.799006 2.36364L0.799006 9.63636L1.89631 9.63636L1.89631 7.37429L2.75568 6.38707L5.10653 9.63636L6.42756 9.63636L3.48366 5.63778L6.4169 2.36364L5.03551 2.36364L1.98509 5.83665L1.89631 5.83665L1.89631 2.36364L0.799006 2.36364ZM18.1605 9.63636L18.1605 2.36364L17.0987 2.36364L17.0987 9.63636L18.1605 9.63636ZM15.9268 4.18182L15.9268 5.03409L14.8082 5.03409L14.8082 8.0348Q14.8082 8.49645 15.0053 8.62962Q15.2024 8.76278 15.4616 8.76278Q15.5895 8.76278 15.6854 8.74503Q15.7812 8.72727 15.8345 8.71662L16.0263 9.59375Q15.9339 9.62926 15.7617 9.66655Q15.5895 9.70384 15.3374 9.70739Q14.9183 9.71449 14.5543 9.55824Q14.1903 9.40199 13.9684 9.07528Q13.7464 8.74858 13.7464 8.25497L13.7464 5.03409L12.9474 5.03409L12.9474 4.18182L13.7464 4.18182L13.7464 2.875L14.8082 2.875L14.8082 4.18182L15.9268 4.18182ZM8.31676 9.39489Q8.88849 9.74645 9.65554 9.74645Q10.4261 9.74645 10.9961 9.39489Q11.5661 9.04332 11.8821 8.40945Q12.1982 7.77557 12.1982 6.93395Q12.1982 6.08523 11.8821 5.44957Q11.5661 4.81392 10.9961 4.46236Q10.4261 4.1108 9.65554 4.1108Q8.88849 4.1108 8.31676 4.46236Q7.74503 4.81392 7.42898 5.44957Q7.11293 6.08523 7.11293 6.93395Q7.11293 7.77557 7.42898 8.40945Q7.74503 9.04332 8.31676 9.39489ZM23.1392 9.63636L23.1392 6.39773Q23.1392 5.74432 23.4979 5.38743Q23.8565 5.03054 24.4105 5.03054Q24.9503 5.03054 25.2592 5.36612Q25.5682 5.7017 25.5682 6.29474L25.5682 9.63636L26.63 9.63636L26.63 6.1669Q26.63 5.15483 26.1204 4.63281Q25.6108 4.1108 24.7727 4.1108Q24.1584 4.1108 23.7553 4.37358Q23.3523 4.63636 23.1641 5.0696L23.0966 5.0696L23.0966 4.18182L22.0774 4.18182L22.0774 9.63636L23.1392 9.63636ZM19.5881 9.63636L19.5881 4.18182L20.6499 4.18182L20.6499 9.63636L19.5881 9.63636ZM10.4847 8.59233Q10.1598 8.85511 9.65909 8.85511Q9.15838 8.85511 8.83168 8.59233Q8.50497 8.32955 8.34517 7.89098Q8.18537 7.45241 8.18537 6.9304Q8.18537 6.40838 8.34517 5.96804Q8.50497 5.5277 8.83168 5.26314Q9.15838 4.99858 9.65909 4.99858Q10.1598 4.99858 10.4847 5.26314Q10.8097 5.5277 10.9677 5.96804Q11.1257 6.40838 11.1257 6.9304Q11.1257 7.45241 10.9677 7.89098Q10.8097 8.32955 10.4847 8.59233Z" />
      </g>
    </g>
    <g id="Kotlin" transform="translate(5 5.116333)">
      <path d="M0 0L7.15313 0L0 7.04375L0 0Z" id="Shape" fill="url(#gradient_1)" stroke="none" />
      <path d="M14 13.9999L7.06562 6.8468L0 13.9999L14 13.9999Z" id="Shape" fill="url(#gradient_2)" stroke="none" />
      <path d="M0 14L14 0L7.06562 0L0 6.96719L0 14Z" id="Shape" fill="url(#gradient_3)" stroke="none" />
    </g>
  </g>
</svg>
